resources/svg/account-pin-box-line.svg

<svg fill="currentColor" viewBox="0 0 24 24" xmlns="http://www.w3.org/2000/svg"><path d="M14 21L12 23L10 21H4.99509C3.89323 21 3 20.1074 3 19.0049V4.99509C3 3.89323 3.89262 3 4.99509 3H19.0049C20.1068 3 21 3.89262 21 4.99509V19.0049C21 20.1068 20.1074 21 19.0049 21H14ZM19 19V5H5V19H10.8284L12 20.1716L13.1716 19H19ZM7.97216 18.1808C7.35347 17.9129 6.76719 17.5843 6.22083 17.2024C7.46773 15.2753 9.63602 14 12.1022 14C14.5015 14 16.6189 15.2071 17.8801 17.0472C17.3438 17.4436 16.7664 17.7877 16.1555 18.0718C15.2472 16.8166 13.77 16 12.1022 16C10.3865 16 8.87271 16.8641 7.97216 18.1808ZM12 13C10.067 13 8.5 11.433 8.5 9.5C8.5 7.567 10.067 6 12 6C13.933 6 15.5 7.567 15.5 9.5C15.5 11.433 13.933 13 12 13ZM12 11C12.8284 11 13.5 10.3284 13.5 9.5C13.5 8.67157 12.8284 8 12 8C11.1716 8 10.5 8.67157 10.5 9.5C10.5 10.3284 11.1716 11 12 11Z"/></svg>

<svg xmlns="http://www.w3.org/2000/svg" viewBox="0 0 24 24" fill="currentColor">
    <g>
        <path fill="none" d="M0 0h24v24H0z"/>
        <path d="M14 21l-2 2-2-2H4.995A1.995 1.995 0 0 1 3 19.005V4.995C3 3.893 3.893 3 4.995 3h14.01C20.107 3 21 3.893 21 4.995v14.01A1.995 1.995 0 0 1 19.005 21H14zm5-2V5H5v14h5.828L12 20.172 13.172 19H19zm-11.028-.82a9.983 9.983 0 0 1-1.751-.978A6.994 6.994 0 0 1 12.102 14c2.4 0 4.517 1.207 5.778 3.047a9.995 9.995 0 0 1-1.724 1.025A4.993 4.993 0 0 0 12.102 16c-1.715 0-3.23.864-4.13 2.18zM12 13a3.5 3.5 0 1 1 0-7 3.5 3.5 0 0 1 0 7zm0-2a1.5 1.5 0 1 0 0-3 1.5 1.5 0 0 0 0 3z"/>
    </g>
</svg>
